docs/img/stages-work1235.svg

<svg width="118" height="74" viewBox="0 0 118 74" fill="none" xmlns="http://www.w3.org/2000/svg">
<path d="M0 29.0005H46V27.5005H0V29.0005Z" fill="#E6C783"/>
<path d="M35.1181 11.213L37.2111 10.667V19H37.9261V9.796L35.1181 10.472V11.213Z" fill="#E6C783"/>
<path d="M44.0001 0.000244141L44.0001 74.0002H45.5001L45.5001 0.000244206L44.0001 0.000244141Z" fill="#E6C783"/>
<path d="M87.8286 41.4204C87.8286 40.1009 87.5596 38.9413 87.0216 37.9417C86.4836 36.9421 85.7563 36.1623 84.8398 35.6025C83.9431 35.0427 82.9269 34.7629 81.7911 34.7629C80.7151 34.7629 79.7487 34.9728 78.8919 35.3926C78.055 35.7925 77.4174 36.2623 76.979 36.8021L79.0413 28.2252H88.1873V27.3255H78.324L75.5742 38.5115C76.1521 37.8717 76.7399 37.3419 77.3377 36.9221C77.9355 36.5022 78.5631 36.1923 79.2207 35.9924C79.8982 35.7725 80.6354 35.6625 81.4324 35.6625C82.4287 35.6625 83.3354 35.9024 84.1523 36.3823C84.9693 36.8621 85.6169 37.5418 86.0951 38.4215C86.5733 39.2812 86.8124 40.2809 86.8124 41.4204C86.8124 42.74 86.5534 43.8696 86.0353 44.8092C85.5372 45.7289 84.8398 46.4386 83.9431 46.9384C83.0464 47.4383 82.0302 47.6882 80.8944 47.6882C79.938 47.6882 79.0912 47.5182 78.3539 47.1784C77.6166 46.8385 76.979 46.3687 76.441 45.7689C75.9229 45.1491 75.5045 44.4493 75.1857 43.6696L74.3189 44.2094C74.7174 45.0691 75.2056 45.8388 75.7835 46.5186C76.3613 47.1784 77.0687 47.6982 77.9056 48.078C78.7624 48.4379 79.7587 48.6178 80.8944 48.6178C81.8509 48.6178 82.7475 48.4679 83.5844 48.168C84.4213 47.8681 85.1586 47.4183 85.7962 46.8185C86.4538 46.2187 86.9519 45.469 87.2906 44.5693C87.6493 43.6696 87.8286 42.62 87.8286 41.4204Z" fill="#E6C783"/>
<path d="M81.0001 0C101.34 1.90755e-06 118 16.558 118 37C118 57.3398 101.442 74 81.0001 74C60.6603 74 44.0001 57.442 44.0001 37C44.1023 16.558 60.6604 -1.90755e-06 81.0001 0ZM81.0001 72.1602C100.42 72.1602 116.16 56.4199 116.16 37C116.16 17.5801 100.42 1.83977 81.0001 1.83977C61.5802 1.83976 45.8399 17.5801 45.8399 37C45.8399 56.3177 61.6824 72.1602 81.0001 72.1602Z" fill="#E6C783"/>
<path d="M90.1284 27.9962L104.416 13.6642L104.272 13.5195L89.984 27.8515L90.1284 27.9962Z" fill="#E6C783"/>
<path d="M57.6305 60.5008L71.9187 46.169L71.7743 46.0243L57.4861 60.3561L57.6305 60.5008Z" fill="#E6C783"/>
<path d="M22.3359 50.8854C22.9178 50.8854 23.4667 50.8041 23.9826 50.6414C24.5117 50.4786 24.9746 50.2413 25.3714 49.9295C25.7814 49.6176 26.1055 49.2447 26.3436 48.8108C26.5816 48.3769 26.7007 47.8887 26.7007 47.3464C26.7007 46.7226 26.5552 46.1328 26.2642 45.5768C25.9864 45.0209 25.5698 44.5734 25.0143 44.2344C24.472 43.8819 23.804 43.7056 23.0104 43.7056C22.2565 43.7056 21.5952 43.8683 21.0264 44.1937C20.4577 44.5056 20.0146 44.9395 19.6971 45.4955C19.3929 46.0514 19.2408 46.7023 19.2408 47.4481H19.8559C19.8559 46.8379 19.9881 46.3023 20.2527 45.8412C20.5304 45.3667 20.9008 44.9938 21.3637 44.7226C21.8399 44.4514 22.3888 44.3158 23.0104 44.3158C23.6718 44.3158 24.2273 44.4582 24.677 44.7429C25.1399 45.0277 25.4838 45.4073 25.7087 45.8819C25.9468 46.343 26.0658 46.8379 26.0658 47.3667C26.0658 47.8277 25.9534 48.2481 25.7285 48.6278C25.5169 48.9939 25.2259 49.3125 24.8556 49.5837C24.4984 49.8549 24.1016 50.0651 23.6651 50.2142C23.2287 50.3634 22.7856 50.438 22.3359 50.438V50.8854ZM22.9311 58.35C23.7643 58.35 24.4918 58.1941 25.1135 57.8822C25.7351 57.5568 26.2179 57.1025 26.5618 56.5195C26.9189 55.9364 27.0975 55.272 27.0975 54.5262C27.0975 53.8347 26.9586 53.2448 26.6808 52.7567C26.4031 52.2685 26.0327 51.8685 25.5698 51.5566C25.1201 51.2312 24.6109 50.9871 24.0421 50.8244C23.4866 50.6481 22.9178 50.56 22.3359 50.56V51.0278C22.7856 51.0278 23.2485 51.1024 23.7247 51.2515C24.2008 51.3871 24.6439 51.5973 25.054 51.8821C25.4772 52.1668 25.8145 52.5261 26.0658 52.9601C26.3303 53.3804 26.4626 53.8821 26.4626 54.4652C26.4626 55.0889 26.3171 55.6516 26.0261 56.1533C25.7351 56.6415 25.3251 57.0279 24.796 57.3127C24.267 57.5839 23.6453 57.7195 22.9311 57.7195C22.1771 57.7195 21.529 57.5703 20.9867 57.272C20.4444 56.9737 20.0212 56.5805 19.717 56.0923C19.426 55.5906 19.2805 55.0211 19.2805 54.3838H18.6456C18.6456 54.9398 18.7382 55.4618 18.9234 55.95C19.1218 56.4245 19.4061 56.8449 19.7765 57.211C20.1601 57.5635 20.6098 57.8415 21.1256 58.0449C21.6547 58.2483 22.2565 58.35 22.9311 58.35Z" fill="#E6C783"/>
<path d="M23.0001 27C35.7214 27 46.0001 37.6062 46.0001 50.5C46.0001 63.4978 35.6196 74 23.0001 74C10.2789 74 0.000121042 63.3938 0.00012207 50.5C0.000123107 37.5022 10.2789 27 23.0001 27ZM23.0001 72.2323C34.7037 72.2323 44.2701 62.458 44.2701 50.5C44.2701 38.542 34.7037 28.7677 23.0001 28.7677C11.2966 28.7677 1.73016 38.542 1.73016 50.5C1.73016 62.458 11.2966 72.2323 23.0001 72.2323Z" fill="#E6C783"/>
<path d="M28.5833 44.8828L37.3517 35.9015L37.2798 35.8278L28.5114 44.8091L28.5833 44.8828Z" fill="#E6C783"/>
<path d="M8.63516 65.2629L17.4035 56.2814L17.3316 56.2078L8.56329 65.1892L8.63516 65.2629Z" fill="#E6C783"/>
<path d="M11.5834 19.0427H17.6826V18.377H13.0508L16.3046 15.0099C16.6448 14.66 16.9298 14.2716 17.1595 13.8449C17.3976 13.4181 17.5167 12.9615 17.5167 12.475C17.5167 12.2019 17.4657 11.9202 17.3636 11.63C17.2615 11.3313 17.0999 11.0539 16.8787 10.7978C16.6661 10.5418 16.3896 10.3369 16.0494 10.1833C15.7176 10.0211 15.3178 9.94005 14.8499 9.94005C14.2715 9.94005 13.7696 10.0766 13.3443 10.3497C12.9275 10.6143 12.6042 10.9899 12.3745 11.4764C12.1534 11.9543 12.0428 12.5134 12.0428 13.1535H12.7446C12.7446 12.6414 12.8296 12.1933 12.9998 11.8092C13.1699 11.4252 13.4123 11.1307 13.7271 10.9259C14.0418 10.7125 14.4161 10.6058 14.8499 10.6058C15.1817 10.6058 15.4667 10.6655 15.7048 10.785C15.9515 10.896 16.1514 11.0453 16.3046 11.2331C16.4662 11.4124 16.5853 11.6129 16.6618 11.8348C16.7469 12.0568 16.7894 12.2787 16.7894 12.5006C16.7894 12.7822 16.7426 13.0468 16.6491 13.2943C16.564 13.5333 16.4449 13.7638 16.2918 13.9857C16.1387 14.1991 15.96 14.4124 15.7559 14.6258L11.5834 19.0427Z" fill="#E6C783"/>
<path d="M14.5001 0C22.455 7.46043e-07 29.0001 6.54514 29.0001 14.5C29.0001 22.4549 22.455 29 14.5001 29C6.54523 29 0.000121422 22.4549 0.00012207 14.5C0.000122719 6.54513 6.44453 -7.55486e-07 14.5001 0ZM14.5001 27.2882C21.5487 27.2882 27.1876 21.5486 27.1876 14.6007C27.1876 7.55209 21.448 1.91319 14.5001 1.91319C7.55217 1.91319 1.81261 7.65278 1.81261 14.6007C1.71192 21.5486 7.45148 27.2882 14.5001 27.2882Z" fill="#E6C783"/>
<path d="M17.8653 10.6468L23.2706 5.22949L23.1995 5.15819L17.7942 10.5755L17.8653 10.6468Z" fill="#E6C783"/>
<path d="M5.58862 22.9353L10.9932 17.5173L10.9221 17.446L5.5175 22.864L5.58862 22.9353Z" fill="#E6C783"/>
<path d="M27.9999 0.000488281L27.9999 29.0005H29.4999L29.4999 0.000488347L27.9999 0.000488281Z" fill="#E6C783"/>
</svg>

<svg width="118" height="74" viewBox="0 0 118 74" fill="none" xmlns="http://www.w3.org/2000/svg"><path d="M0 29h46v-1.5H0V29zm35.118-17.787l2.093-.546V19h.715V9.796l-2.808.676v.741z" fill="#E6C783"/><path d="M44 0v74h1.5V0H44zm43.829 41.42c0-1.32-.27-2.479-.807-3.478-.538-1-1.266-1.78-2.182-2.34-.897-.56-1.913-.84-3.049-.84-1.076 0-2.042.21-2.9.63-.836.4-1.474.87-1.912 1.41l2.062-8.577h9.146v-.9h-9.863l-2.75 11.186c.578-.64 1.166-1.17 1.764-1.589a6.61 6.61 0 011.883-.93 7.127 7.127 0 012.211-.33c.997 0 1.903.24 2.72.72.817.48 1.465 1.16 1.943 2.04.478.86.717 1.859.717 2.998 0 1.32-.259 2.45-.777 3.39a5.242 5.242 0 01-2.092 2.128c-.897.5-1.913.75-3.049.75-.956 0-1.803-.17-2.54-.51a5.809 5.809 0 01-1.913-1.41 7.926 7.926 0 01-1.255-2.098l-.867.54a10.1 10.1 0 001.465 2.309 6.169 6.169 0 002.122 1.559c.856.36 1.853.54 2.988.54a7.91 7.91 0 002.69-.45 6.28 6.28 0 002.212-1.35c.658-.6 1.156-1.349 1.495-2.249.358-.9.538-1.949.538-3.149z" fill="#E6C783"/><path d="M81 0c20.34 0 37 16.558 37 37 0 20.34-16.558 37-37 37-20.34 0-37-16.558-37-37 .102-20.442 16.66-37 37-37zm0 72.16c19.42 0 35.16-15.74 35.16-35.16 0-19.42-15.74-35.16-35.16-35.16-19.42 0-35.16 15.74-35.16 35.16 0 19.318 15.842 35.16 35.16 35.16z" fill="#E6C783"/><path d="M90.128 27.996l14.288-14.332-.144-.144-14.288 14.332.144.144zM57.63 60.5l14.29-14.33-.145-.145-14.288 14.332.145.145zm-35.294-9.615c.582 0 1.13-.08 1.647-.244.529-.162.992-.4 1.388-.712a3.53 3.53 0 00.973-1.118c.238-.434.357-.922.357-1.465a3.77 3.77 0 00-.437-1.77 3.26 3.26 0 00-1.25-1.342c-.542-.352-1.21-.528-2.004-.528-.754 0-1.415.162-1.984.488a3.361 3.361 0 00-1.329 1.301c-.304.556-.456 1.207-.456 1.953h.615c0-.61.132-1.146.397-1.607a3.068 3.068 0 011.11-1.118c.477-.272 1.026-.407 1.647-.407.662 0 1.217.142 1.667.427.463.285.807.664 1.032 1.139.238.461.357.956.357 1.485 0 .46-.113.881-.337 1.26a3.115 3.115 0 01-.873.957 4.199 4.199 0 01-1.19.63c-.437.15-.88.224-1.33.224v.447zm.595 7.465c.833 0 1.56-.156 2.182-.468a3.559 3.559 0 001.449-1.362c.357-.584.535-1.248.535-1.994 0-.691-.138-1.281-.416-1.77a3.535 3.535 0 00-1.111-1.2 4.863 4.863 0 00-1.528-.732 5.608 5.608 0 00-1.706-.264v.468c.45 0 .913.074 1.389.224.476.135.919.345 1.329.63.423.285.76.644 1.012 1.078.264.42.397.922.397 1.505a3.3 3.3 0 01-.437 1.688 3.117 3.117 0 01-1.23 1.16c-.529.27-1.15.406-1.865.406-.754 0-1.402-.149-1.944-.447a3.38 3.38 0 01-1.27-1.18c-.291-.501-.436-1.07-.436-1.708h-.635c0 .556.092 1.078.277 1.566.199.474.483.895.854 1.261.383.352.833.63 1.349.834.529.203 1.13.305 1.805.305z" fill="#E6C783"/><path d="M23 27c12.721 0 23 10.606 23 23.5C46 63.498 35.62 74 23 74 10.28 74 0 63.394 0 50.5 0 37.502 10.28 27 23 27zm0 45.232c11.704 0 21.27-9.774 21.27-21.732S34.704 28.768 23 28.768c-11.703 0-21.27 9.774-21.27 21.732S11.297 72.232 23 72.232z" fill="#E6C783"/><path d="M28.583 44.883l8.769-8.982-.072-.073-8.769 8.981.072.074zM8.635 65.263l8.769-8.982-.072-.073-8.769 8.981.072.074zm2.948-46.22h6.1v-.666H13.05l3.254-3.367a5.2 5.2 0 00.855-1.165 2.77 2.77 0 00.357-1.37 2.54 2.54 0 00-.153-.845 2.51 2.51 0 00-.485-.832 2.272 2.272 0 00-.83-.615c-.331-.162-.731-.243-1.2-.243-.578 0-1.08.137-1.505.41-.416.264-.74.64-.97 1.126-.22.478-.331 1.037-.331 1.677h.702c0-.512.085-.96.255-1.344.17-.384.412-.678.727-.883.315-.213.69-.32 1.123-.32.332 0 .617.06.855.179.246.111.446.26.6.448.161.18.28.38.357.602.085.222.127.444.127.666 0 .281-.046.546-.14.793a2.97 2.97 0 01-.357.692 5.943 5.943 0 01-.536.64l-4.173 4.417z" fill="#E6C783"/><path d="M14.5 0C22.455 0 29 6.545 29 14.5S22.455 29 14.5 29 0 22.455 0 14.5 6.445 0 14.5 0zm0 27.288c7.049 0 12.688-5.74 12.688-12.687 0-7.049-5.74-12.688-12.688-12.688S1.813 7.653 1.813 14.601C1.712 21.549 7.45 27.288 14.5 27.288z" fill="#E6C783"/><path d="M17.865 10.647l5.406-5.418-.072-.07-5.405 5.417.071.07zM5.589 22.935l5.404-5.418-.07-.071-5.405 5.418.07.071zM28 0v29h1.5V0H28z" fill="#E6C783"/></svg>
